svg/u1f4e4.svg

<svg viewBox="0 0 128 128" xmlns="http://www.w3.org/2000/svg">
  <g>
    <polygon points="118.53,102.36 9.47,102.36 21.47,68.15 106.53,68.15 " fill="#A15D38"/>
    <polygon points="122.12,120.29 122.12,89.46 106.92,47.88 21.08,47.88 5.88,89.46 5.88,120.29 23.46,70.08 104.54,70.08 " fill="#4E342E"/>
    <path d="M99.5,86.45c-6.33,0-4.93,11.47-17.1,11.47H43.3c-8.36,0-9.73-11.47-14.41-11.47 c-3.69,0-23.89,0-23.89,0v35.09C5,122.9,6.1,124,7.46,124h113.07c1.36,0,2.47-1.1,2.47-2.47V86.45 C123,86.45,102.73,86.45,99.5,86.45z" fill="#F29657"/>
    <path d="M122.87,85.94l-13.76-38.7c-0.34-1.02-1.3-1.7-2.37-1.7H21.26c-1.07,0-2.03,0.68-2.37,1.7 L5.13,85.94c-0.41,1.21,0.49,2.47,1.77,2.47h20.92c1.51,0,2.88,0.85,3.56,2.2c1.68,3.33,5.67,9.27,12.88,9.27 c4.95,0,34.55,0,39.5,0c7.2,0,11.2-5.94,12.88-9.27c0.68-1.35,2.05-2.2,3.56-2.2h20.92C122.38,88.41,123.28,87.15,122.87,85.94z M115.48,84.43h-15.3c-3.02,0-5.75,1.68-7.11,4.4c-1.33,2.64-4.31,7.08-9.32,7.08h-39.5c-5.01,0-7.99-4.43-9.32-7.08 c-1.36-2.71-4.09-4.4-7.11-4.4h-15.3c-1.31,0-2.23-1.29-1.81-2.53l11.08-30.76c0.33-0.96,1.23-1.61,2.24-1.61h79.95 c1.02,0,1.92,0.65,2.24,1.61L117.3,81.9C117.72,83.14,116.79,84.43,115.48,84.43z" fill="#FFCC80"/>
    <path d="M51.37,37.41v23.72c0,0.5,0.4,0.9,0.9,0.9H64h11.73c0.5,0,0.9-0.4,0.9-0.9V37.41 c0-0.5,0.4-0.9,0.9-0.9l12.11,0.03c0.76,0,1.18-0.89,0.69-1.48L64.69,4.32c-0.36-0.43-1.02-0.43-1.38,0L37.67,35.06 c-0.49,0.59-0.07,1.48,0.69,1.48l12.11-0.03C50.96,36.51,51.37,36.91,51.37,37.41z" fill="#F44336"/>
  </g>
</svg>

<svg viewBox="0 0 128 128" xmlns="http://www.w3.org/2000/svg">
  <defs/>
  <path d="M118.53,102.36 L9.47,102.36 L21.47,68.15 L106.53,68.15 Z" fill="#A15D38"/>
  <path d="M122.12,120.29 L122.12,89.46 L106.92,47.88 L21.08,47.88 L5.88,89.46 L5.88,120.29 L23.46,70.08 L104.54,70.08 Z" fill="#4E342E"/>
  <path d="M99.5,86.45 C93.17,86.45 94.57,97.92 82.4,97.92 L43.3,97.92 C34.94,97.92 33.57,86.45 28.89,86.45 C25.2,86.45 5,86.45 5,86.45 L5,121.54 C5,122.9 6.1,124 7.46,124 L120.53,124 C121.89,124 123,122.9 123,121.53 L123,86.45 C123,86.45 102.73,86.45 99.5,86.45 Z" fill="#F29657"/>
  <path d="M122.87,85.94 L109.11,47.24 C108.77,46.22 107.81,45.54 106.74,45.54 L21.26,45.54 C20.19,45.54 19.23,46.22 18.89,47.24 L5.13,85.94 C4.72,87.15 5.62,88.41 6.9,88.41 L27.82,88.41 C29.33,88.41 30.7,89.26 31.38,90.61 C33.06,93.94 37.05,99.88 44.26,99.88 C49.21,99.88 78.81,99.88 83.76,99.88 C90.96,99.88 94.96,93.94 96.64,90.61 C97.32,89.26 98.69,88.41 100.2,88.41 L121.12,88.41 C122.38,88.41 123.28,87.15 122.87,85.94 Z M115.48,84.43 L100.18,84.43 C97.16,84.43 94.43,86.11 93.07,88.83 C91.74,91.47 88.76,95.91 83.75,95.91 L44.25,95.91 C39.24,95.91 36.26,91.48 34.93,88.83 C33.57,86.12 30.84,84.43 27.82,84.43 L12.52,84.43 C11.21,84.43 10.29,83.14 10.71,81.9 L21.79,51.14 C22.12,50.18 23.02,49.53 24.03,49.53 L103.98,49.53 C105,49.53 105.9,50.18 106.22,51.14 L117.3,81.9 C117.72,83.14 116.79,84.43 115.48,84.43 Z" fill="#FFCC80"/>
  <path d="M51.37,37.41 L51.37,61.13 C51.37,61.63 51.77,62.03 52.27,62.03 L64,62.03 L75.73,62.03 C76.23,62.03 76.63,61.63 76.63,61.13 L76.63,37.41 C76.63,36.91 77.03,36.51 77.53,36.51 L89.64,36.54 C90.4,36.54 90.82,35.65 90.33,35.06 L64.69,4.32 C64.33,3.89 63.67,3.89 63.31,4.32 L37.67,35.06 C37.18,35.65 37.6,36.54 38.36,36.54 L50.47,36.51 C50.96,36.51 51.37,36.91 51.37,37.41 Z" fill="#F44336"/>
</svg>
